X:1

T:Dew on the Grass, The

M:C

L:1/8

R:Air

N:”Moderately slow”

S:Joyce – Old Irish Folk Music and Songs (1909)

Z:AK/Fiddler’s Companion

K:Ador

G|A2 AB c2 BA|G2 de d2 cB|AGAB cedc | B2 AG B3E | A2 AB c2 BG | A2 ag a2a2 |

bagb eaed|B2 AG A2 :: d | efga gega | gega ge e2 | eaab agab | agab aged | efge gaba |

gega b2b2 | abaf geba | ged=f ed B2 | ABcd eaed | B2 AG A3 ||

           

DEWDROP. Old-Time, Waltz. From the playing of Kirk and Sam McGee.

                       

DEWDROPS ON THE CORN. AKA and see “Australian Waters,” “Vincent Campbell’s.” Irish, Jig. D Mixolydian. Standard tuning. AABB. Jerry O’Sullivan – “The Invasion.”

